X: 1
T: Klezmer Kerry Polka #2
C: Rich Sobel
N: Minor version of an Irish polka.
R: polka
Z: 2015 John Chambers <jc:trillian.mit.edu>
M: 2/4
L: 1/16
K: Dm
|:\
"Dm"A2d2 A2d2 | A2d2 d3d | "Bb"B2G2 F2D2 | "(Gm)"B,6 CB, |\
"A7"A,2^C2 E2G2 | A4 A3B |1 A2G2 F2G2 | "Dm"A4 A4 :|2 A2G2 F2E2 | "Dm"D8 |]
|:\
"C(*)"C2E2 G3B | B2"F"A2 A4 | "D7"D2^F2 A3c | c2"Gm"B2 B4 |\
"Gm"DGBd g2g2 | "Dm"DFAd f2f2 | "A7"e2ag fe^cA | "Dm"d4 d4 :|
%
W: (*) First four bars may be played up an octave in the repeat.
